rospo-icon-theme-classic-common/64x64/apps/scinotes.svg

<svg height="64" width="64" xmlns="http://www.w3.org/2000/svg"><path d="m10 56v2c0 1.662 1.338 3 3 3h38c1.662 0 3-1.338 3-3v-2c0 1.662-1.338 3-3 3h-38c-1.662 0-3-1.338-3-3z" opacity=".2"/><path d="m54 57v-50c0-1.662-1.338-3-3-3h-38c-1.662 0-3 1.338-3 3v50c0 1.662 1.338 3 3 3h38c1.662 0 3-1.338 3-3z" fill="#e74c3c"/><path d="m13 4c-1.662 0-3 1.338-3 3v1c0-1.662 1.338-3 3-3h38c1.662 0 3 1.338 3 3v-1c0-1.662-1.338-3-3-3z" fill="#fff" opacity=".2"/><path d="m17 14v3h28v-3zm0 7v3h31v-3zm0 7v3h28v-3zm0 7v3h22v-3zm0 7v3h28v-3zm0 7v3h22v-3z" opacity=".2"/><path d="m17 13v3h28v-3zm0 7v3h31v-3zm0 7v3h28v-3zm0 7v3h22v-3zm0 7v3h28v-3zm0 7v3h22v-3z" fill="#fff"/></svg>

<svg xmlns="http://www.w3.org/2000/svg" width="64" height="64" version="1">
 <path style="opacity:.2" d="m10 56v2c0 1.662 1.338 3 3 3h38c1.662 0 3-1.338 3-3v-2c0 1.662-1.338 3-3 3h-38c-1.662 0-3-1.338-3-3z"/>
 <path style="fill:#e74c3c" d="m54 57v-50c0-1.662-1.338-3-3-3h-38c-1.662 0-3 1.338-3 3v50c0 1.662 1.338 3 3 3h38c1.662 0 3-1.338 3-3z"/>
 <path style="opacity:0.2;fill:#ffffff" d="m13 4c-1.662 0-3 1.338-3 3v1c0-1.662 1.338-3 3-3h38c1.662 0 3 1.338 3 3v-1c0-1.662-1.338-3-3-3h-38z"/>
 <path d="m 17,14 0,3 28,0 0,-3 -28,0 z m 0,7 0,3 31,0 0,-3 -31,0 z m 0,7 0,3 28,0 0,-3 -28,0 z m 0,7 0,3 22,0 0,-3 -22,0 z m 0,7 0,3 28,0 0,-3 -28,0 z m 0,7 0,3 22,0 0,-3 -22,0 z" style="opacity:0.2"/>
 <path style="fill:#ffffff" d="M 17 13 L 17 16 L 45 16 L 45 13 L 17 13 z M 17 20 L 17 23 L 48 23 L 48 20 L 17 20 z M 17 27 L 17 30 L 45 30 L 45 27 L 17 27 z M 17 34 L 17 37 L 39 37 L 39 34 L 17 34 z M 17 41 L 17 44 L 45 44 L 45 41 L 17 41 z M 17 48 L 17 51 L 39 51 L 39 48 L 17 48 z"/>
</svg>
